!!!OTL: 2154. Koenigs Toechterlein und der Tod.
!!!ODT: 1842
!!!ARE: Europa, Mitteleuropa, Deutschland, Schlesien
!!!SCT: E2154
!!!TXL: @@DE
!!!YEM: Copyright 1995, estate of Helmut Schaffrath.
**kern	**text
*ICvox	*
*M3/4	*
*k[f#]	*
*G:	*
!LO:TX:a:t=Mäßig langſam.	!
!LO:TX:a:t=Mündl. aus Schleſien vor 1842.	!
{4d	Es
=1	=1
8d	gieng
8g	ein
4g	Jung-
4a	-frau
=2	=2
8gL	ʒar-
8bJ	.
4dd}	-te
{4a	friſch
=3	=3
8b	fröh-
8dd	-lich
4b/	und
4a	ge-
=4	=4
2g}	-ſund,
{4d	Jn
=5	=5
8d	ih-
8g	-ren
4g	Ro-
4a	-ſen-
=6	=6
8gL	-gar-
8bJ	.
4dd}	-ten
{4a	wol
=7	=7
8b	bei
8dd	der
4b/	Mor-
4a	-gen-
=8	=8
2g}	-ſtund,
{4a	wol
=9	=9
8b	bei
8dd	der
4b/	Morgen-
4a	.
=10	=10
(4g	-ſtund,
4a;)}	.
{4d	ſchon
=11	=11
8d	Kränʒlein
8g	.
4g	that
4a	ſie
=12	=12
8gL	win-
8bJ	.
4dd}	-den
{4a	von
=13	=13
8b	lau-
8dd	-ter
4b	Röslein
4a	.
=14	=14
2g}	roth.
==	==
!!!AGN: geistlich, Moral - Lied, Tod
!!!ONB: ESAC (Essen Associative Code) Database: ERK3
!!!AMT: simple triple
!!!AIN: vox
!!!EED: Helmut Schaffrath
!!!EEV: 1.0
!!!GTL: 6. Lieder von den Letzten Dinen: Tod, Begraebniss, Auferstehung, Weltgericht, ewige Seligkeit.
!!!URL-scan: https://rosdok.uni-rostock.de/mcrviewer/recordIdentifier/rosdok_ppn745177999/iview2/phys_0856.iview2?x=188.9681574111819&y=1468.7219924973324&scale=0.7014306698522895&rotation=0&layout=singlePageLayout
!!!ENC: Anna Maria Matuszewska
!!!EEV: 2025/14/01
*-	*-
